icons/lg-check.svg

<?xml version="1.0" encoding="UTF-8" standalone="no"?>
<svg width="24px" height="24px" viewBox="0 0 24 24" version="1.1" xmlns="http://www.w3.org/2000/svg" xmlns:xlink="http://www.w3.org/1999/xlink">
    <!-- Generator: Sketch 40.1 (33804) - http://www.bohemiancoding.com/sketch -->
    <title>lg-check</title>
    <desc>Created with Sketch.</desc>
    <defs></defs>
    <g id="Page-1" stroke="none" stroke-width="1" fill="none" fill-rule="evenodd">
        <g id="lg-check" fill="#777777">
            <path d="M9.60666233,17.2409702 L10.3447044,17.9098543 L11.0165056,17.1744666 L19.2383054,8.17446657 L17.7616946,6.82553343 L10.2169242,15.0948844 C8.86846215,13.872779 6.17153789,11.4285689 6.17153789,11.4285689 L4.82846211,12.9105094 L9.60666233,17.2409702 Z" id="Path-1"></path>
        </g>
    </g>
</svg>

<svg xmlns="http://www.w3.org/2000/svg" viewBox="0 0 24 24">
  <path fill-rule="evenodd" d="M9.607 17.24l.738.67.672-.736 8.22-9-1.475-1.348-7.545 8.27-4.045-3.667-1.344 1.48 4.78 4.33z"/>
</svg>
